!!!OTL: Die verunglueckte Muellerstochter
!!!OTL-incipit:Meister Mueller tut sich graemen,
!!!ARE: Europa, Mitteleuropa, Deutschland (BRD), Hessen, Nassau
!!!YOR: 5, S. 193
!!    ????
!!!SCT: Q0106D
!!!TXL: @@DE
!!!YEM: Copyright 1995, estate of Helmut Schaffrath.
**kern	**text
*ICvox	*
*M4/4	*
*met(c)	*
*k[f#]	*
*G:	*
!LO:TX:a:t=Gestraffter und in sich geschlossener wirkt dagegen die Weise aus Nassau:	!
!LO:TX:a:t=102	!
{4.dd	Mei-
8cc	-ster
=1	=1
4b	Mül-
4b	-ler
4b	tut
4cc	sich
=2	=2
4ee	grä-
4dd}	-men,
{4.ee	was
8dd	mit
=3	=3
4dd	sei-
4b	-ner
4cc	Mühl'
4dd	ge-
=4	=4
2b	-schehn
4r}	.
{4dd	'Man
=5	=5
4gg	muß
(8ff#L	ja
8eeJ)	.
4dd	fast
4dd	ʒu-
=6	=6
4dd	-grun-
4gg	-de
4dd}	gehn,
{8bL	denn
8ccJ	das
=7	=7
(8eeL	Mühlrad
8ddJ)	.
4dd	.
4cc	bleibt
4dd	ja
=8	=8
2b	stehn.'
4r}	.
{4dd	'Man
=9	=9
4gg	muß
(8ff#L	ja
8eeJ)	.
4dd	fast
4dd	ʒu-
=10	=10
4dd	-grun-
4gg	-de
4dd}	gehn,
{8bL	denn
8ccJ	das
=11	=11
(8eeL	Mühlrad
8ddJ)	.
4dd	.
4cc	bleibt
4dd	ja
=12	=12
2b}	stehn.'
==	==
!!!AGN: Ballade, Unfall, Tod
!!!ONB: ESAC (Essen Associative Code) Database: BALLADE
!!!AMT: simple quadruple
!!!AIN: vox
!!!EED: Helmut Schaffrath
!!!EEV: 1.0
!!!source: Deutsche Volkslieder mit ihren Melodien Balladen. Herausgegeben vom Deutschen Volksliedarchiv. Fünfter Teil. Freiburg/Breisgau 1965.
!!!page: 193
!!!ENC: Anna Maria Matuszewska
!!!EEV: 2025/03/04
*-	*-
